src/static/img/svg/phone.svg

<svg fill="none" height="16" viewBox="0 0 16 16" width="16" xmlns="http://www.w3.org/2000/svg"><path d="m15.1111 11.1111c-1.0667 0-2.1333-.1778-3.2-.5333-.2667-.0889-.6222 0-.8889.1778l-1.95553 1.9555c-2.48886-1.2444-4.53334-3.37777-5.86667-5.86666l1.95556-1.95555c.26666-.26667.35555-.62222.17777-.88889-.26666-.97778-.44444-2.04444-.44444-3.111111 0-.533333-.35556-.888889-.88889-.888889h-3.111111c-.533333 0-.888889.355556-.888889.888889 0 8.355551 6.75556 15.111111 15.1111 15.111111.5333 0 .8889-.3556.8889-.8889v-3.1111c0-.5333-.3556-.8889-.8889-.8889z" fill="#fff"/></svg>

<svg width="16" height="16" viewBox="0 0 16 16" fill="none" xmlns="http://www.w3.org/2000/svg">
<path d="M15.1111 11.1111C14.0444 11.1111 12.9778 10.9333 11.9111 10.5778C11.6444 10.4889 11.2889 10.5778 11.0222 10.7556L9.06667 12.7111C6.57781 11.4667 4.53333 9.33333 3.2 6.84444L5.15556 4.88889C5.42222 4.62222 5.51111 4.26667 5.33333 4C5.06667 3.02222 4.88889 1.95556 4.88889 0.888889C4.88889 0.355556 4.53333 0 4 0H0.888889C0.355556 0 0 0.355556 0 0.888889C0 9.24444 6.75556 16 15.1111 16C15.6444 16 16 15.6444 16 15.1111V12C16 11.4667 15.6444 11.1111 15.1111 11.1111Z" fill="white"/>
</svg>
